resources/svg/select.svg

<svg viewBox="0 0 24 24"><path fill="none" stroke="currentColor" stroke-width="2" d="M8 1h6h-6zm11.188 18.472L16 22l-3.5-4.5l-3 3.5L7 7l13 6.5l-4.5 1.5l3.688 4.472zM19 4V1h-3M6 1H3v3m0 10v3h3M19 6v4v-4zM3 12V6v6z"/></svg>

<svg xmlns="http://www.w3.org/2000/svg" viewBox="0 0 24 24" fill="currentColor"><path fill="none" stroke="currentColor" stroke-width="2" d="M8,1 L14,1 L8,1 Z M19.188,19.472 L16,22 L12.5,17.5 L9.5,21 L7,7 L20,13.5 L15.5,15 L19.188,19.472 Z M19,4 L19,1 L16,1 M6,1 L3,1 L3,4 M3,14 L3,17 L6,17 M19,6 L19,10 L19,6 Z M3,12 L3,6 L3,12 Z"/></svg>
